images/icons/youtube2.svg

<svg xmlns="http://www.w3.org/2000/svg" xmlns:xlink="http://www.w3.org/1999/xlink"
    viewBox="0 0 32 32">
    <!-- <path 
        d="M0,0 L32,0 L32,32 L0,32 L0,0 Z M24.8319297,11.4874563 C24.6803369,10.1603684 24.3639692,9.77357894 24.1398754,9.59352174 C23.7839619,9.31343284 23.1380446,9.21340113 22.2746246,9.15338207 C20.8905163,9.06001905 18.537532,9 16,9 C13.455877,9 11.1094837,9.05335028 9.72537529,9.15338207 C8.86195533,9.21340113 8.21603808,9.31343284 7.8601245,9.59352174 C7.63603076,9.77357894 7.32625412,10.1603684 7.1680703,11.4874563 C6.94397657,13.4013973 6.94397657,17.7627818 7.1680703,19.6767227 C7.32625412,21.0038107 7.63603076,21.3906002 7.8601245,21.5706573 C8.21603808,21.8507463 8.86195533,21.950778 9.72537529,22.0107971 C11.1094837,22.1041601 13.455877,22.164179 16,22.164179 C18.544123,22.164179 20.8905163,22.1041601 22.2746246,22.0107971 C23.1380446,21.950778 23.7839619,21.8507463 24.1398754,21.5706573 C24.3639692,21.3972689 24.6737458,21.0038107 24.8319297,19.6767227 C25.0560234,17.7627818 25.0560234,13.4013973 24.8319297,11.4874563 Z M13.8249725,18.4429978 L13.8249725,12.7145125 L19.2559502,15.5754208 L13.8249725,18.4429978 Z"></path> -->
    <!-- <path
        d="M16,31 C24.2842712,31 31,24.2842712 31,16 C31,7.71572875 24.2842712,1 16,1 C7.71572875,1 1,7.71572875 1,16 C1,24.2842712 7.71572875,31 16,31 Z M16,32 C7.163444,32 0,24.836556 0,16 C0,7.163444 7.163444,0 16,0 C24.836556,0 32,7.163444 32,16 C32,24.836556 24.836556,32 16,32 Z"
       >
    </path> -->
    <path 
        d="M24.8319297,11.4874563 C24.6803369,10.1603684 24.3639692,9.77357894 24.1398754,9.59352174 C23.7839619,9.31343284 23.1380446,9.21340113 22.2746246,9.15338207 C20.8905163,9.06001905 18.537532,9 16,9 C13.455877,9 11.1094837,9.05335028 9.72537529,9.15338207 C8.86195533,9.21340113 8.21603808,9.31343284 7.8601245,9.59352174 C7.63603076,9.77357894 7.32625412,10.1603684 7.1680703,11.4874563 C6.94397657,13.4013973 6.94397657,17.7627818 7.1680703,19.6767227 C7.32625412,21.0038107 7.63603076,21.3906002 7.8601245,21.5706573 C8.21603808,21.8507463 8.86195533,21.950778 9.72537529,22.0107971 C11.1094837,22.1041601 13.455877,22.164179 16,22.164179 C18.544123,22.164179 20.8905163,22.1041601 22.2746246,22.0107971 C23.1380446,21.950778 23.7839619,21.8507463 24.1398754,21.5706573 C24.3639692,21.3972689 24.6737458,21.0038107 24.8319297,19.6767227 C25.0560234,17.7627818 25.0560234,13.4013973 24.8319297,11.4874563 Z M13.8249725,18.4429978 L13.8249725,12.7145125 L19.2559502,15.5754208 L13.8249725,18.4429978 Z"
        style="color:#fff;fill:#fff"></path>
</svg>

<svg xmlns="http://www.w3.org/2000/svg" viewBox="0 0 32 32"><path d="M24.832 11.487c-.152-1.327-.468-1.713-.692-1.893-.356-.28-1.002-.38-1.865-.44C20.89 9.06 18.538 9 16 9c-2.544 0-4.89.053-6.275.153-.863.06-1.509.16-1.865.44-.224.18-.534.567-.692 1.894-.224 1.914-.224 6.276 0 8.19.158 1.327.468 1.714.692 1.894.356.28 1.002.38 1.865.44 1.384.093 3.73.153 6.275.153 2.544 0 4.89-.06 6.275-.153.863-.06 1.509-.16 1.865-.44.224-.174.534-.567.692-1.894.224-1.914.224-6.276 0-8.19zm-11.007 6.956v-5.728l5.431 2.86-5.431 2.868z" color="#fff" fill="#fff"/></svg>
